X: 1
T:Boys of Antrim
M:6/8
L:1/8
C:Bob McQuillen
R:Jig
K:Bm
"A7" f2 g |"D"a2b "A"a2g | "D"f2e d2e | fgf e2d | "G"B3-B2c |
"G"d3 dcB | "D"AFA fdf | "G"gbg "D"f2d | "A7"e3 f2g |
"D"a2b "A"a2g |"D" f2d A2d | fgf e2d | "G"B3-B2c |
"G"dcd "A"ede | "D"f2d A2d | "A7"Bcd e2c | "D"d2z ||
"D7"D2E |"Bm"F3 "A"EFG | "Bm"F2D B,2C | DED "A"C2A, | "Bm"B,3-B,2C |
"Bm"DEF "Em"EFG | "Bm"F2B B2d | "A"cde d2c | "Bm"B3 "G"d2B |
"D"A3 FAB |"A" A2F E2F | "Bm"DEF "G"D2B, | "A"A,3 D2E |
"Bm"F3 BAB | "D"A2F "A"E2F | "Bm"DED "A"C2A, | "Bm"B,3 |]
